kora-light/actions/scalable/format-font-size-less.svg

<svg xmlns="http://www.w3.org/2000/svg" style="fill-rule:evenodd;clip-rule:evenodd;stroke-linejoin:round;stroke-miterlimit:2" width="100%" height="100%" version="1.1" viewBox="0 0 16 16" xml:space="preserve">
 <defs>
  <style id="current-color-scheme" type="text/css">
   .ColorScheme-Text { color:#444444; } .ColorScheme-Highlight { color:#4285f4; } .ColorScheme-NeutralText { color:#ff9800; } .ColorScheme-PositiveText { color:#4caf50; } .ColorScheme-NegativeText { color:#f44336; }
  </style>
 </defs>
 <path style="fill:currentColor;" class="ColorScheme-Text" d="M13,15l3,-4l-6,0l3,4Zm-7,-14l-5,14l2.5,0l1.063,-3l4.437,0l0,-1c0,0 0,-1 1,-1l1.375,0l-3.375,-9l-2,0Zm1,4l1.75,5l-3.5,0l1.75,-5Z"/>
</svg>

<svg xmlns="http://www.w3.org/2000/svg" width="16" height="16" version="1.1">
 <defs>
  <style id="current-color-scheme" type="text/css">
   .ColorScheme-Text { color:#444444; } .ColorScheme-Highlight { color:#4285f4; }
  </style>
 </defs>
 <path style="fill:currentColor" class="ColorScheme-Text" d="M 13,15 16,11 H 10 Z M 6,1 1,15 H 3.5 L 4.5625,12 H 9 V 11 C 9,11 9,10 10,10 H 11.375 L 8,1 Z M 7,5 8.75,10 H 5.25 Z"/>
</svg>
